src/assets/home.svg

<svg xmlns="http://www.w3.org/2000/svg" width="64" height="64" fill-rule="evenodd" clip-rule="evenodd" image-rendering="optimizeQuality" shape-rendering="geometricPrecision" text-rendering="geometricPrecision" viewBox="0 0 3997.6 3997.6"><path fill="#ffffff" d="M3997.62 2165.11l-1998.79 -1998.81 -1998.81 1998.81 499.48 0 0 1666.19 1165.77 0 0 -833.08 666.28 0 0 833.08 1165.77 0 0 -1666.19 499.48 0 0.82 0zm-833.08 1332.59l-499.48 0 0 -833.1 -1332.59 0 0 833.1 -499.48 0 0 -1708.82 1165.79 -1151.55 1165.77 1164.83 0 1696.49 0 -0.94z"></path><path fill="#fa6831" d="M3331.34 1181.4L3331.34 333.12 2830.92 333.12 2830.92 681.91z"></path></svg>

<svg xmlns="http://www.w3.org/2000/svg" width="64" height="64" fill-rule="evenodd" clip-rule="evenodd" image-rendering="optimizeQuality" shape-rendering="geometricPrecision" text-rendering="geometricPrecision" viewBox="0 0 3997.6 3997.6"><path fill="#fff" d="M3997.62 2165.11 1998.83 166.3.02 2165.11H499.5V3831.3h1165.77v-833.08h666.28v833.08h1165.77V2165.11h500.3zM3164.54 3497.7h-499.48v-833.1H1332.47v833.1H832.99V1788.88L1998.78 637.33l1165.77 1164.83v1696.49-.94z"/><path fill="#FA6831" d="M3331.34 1181.4V333.12h-500.42v348.79z"/></svg>
